docs/local/img/index-matching/d.svg

<svg width="458" height="519" viewBox="0 0 458 519" fill="none" xmlns="http://www.w3.org/2000/svg"><path opacity=".05" fill-rule="evenodd" clip-rule="evenodd" d="M0 519h190.343C376.953 519 458 398.891 458 259.5 458 143.099 404.467 0 190.343 0H0v519zm145.73-127.586V127.58a3.022 3.022 0 01.889-2.136 3.049 3.049 0 012.142-.887h13.293c144.214 0 145.73 106.028 145.73 134.943 0 26.692-1.489 134.937-145.73 134.937h-13.293a3.045 3.045 0 01-2.142-.888 3.02 3.02 0 01-.889-2.135z" fill="#000"/></svg>

<svg width="458" height="519" viewBox="0 0 458 519" fill="none" xmlns="http://www.w3.org/2000/svg">
<path opacity="0.05" fill-rule="evenodd" clip-rule="evenodd" d="M0 519H190.343C376.953 519 458 398.891 458 259.5C458 143.099 404.467 0 190.343 0H0V519ZM145.73 391.414V127.58C145.731 126.778 146.051 126.011 146.619 125.444C147.188 124.878 147.958 124.559 148.761 124.557H162.054C306.268 124.557 307.784 230.585 307.784 259.5C307.784 286.192 306.295 394.437 162.054 394.437H148.761C147.958 394.435 147.188 394.116 146.619 393.549C146.051 392.983 145.731 392.215 145.73 391.414Z" fill="black"/>
</svg>
